src/font_icons/icons/twitter.svg

<?xml version="1.0" encoding="UTF-8" standalone="no"?>
<svg
   width="24"
   height="24"
   viewBox="0 0 24 24"
   fill="none"
   version="1.1"
   id="svg490"
   sodipodi:docname="twitter.svg"
   inkscape:version="1.1 (c4e8f9e, 2021-05-24)"
   xmlns:inkscape="http://www.inkscape.org/namespaces/inkscape"
   xmlns:sodipodi="http://sodipodi.sourceforge.net/DTD/sodipodi-0.dtd"
   xmlns="http://www.w3.org/2000/svg"
   xmlns:svg="http://www.w3.org/2000/svg">
  <defs
     id="defs494" />
  <sodipodi:namedview
     id="namedview492"
     pagecolor="#ffffff"
     bordercolor="#666666"
     borderopacity="1.0"
     inkscape:pageshadow="2"
     inkscape:pageopacity="0.0"
     inkscape:pagecheckerboard="0"
     showgrid="false"
     inkscape:zoom="7.8747029"
     inkscape:cx="3.2382174"
     inkscape:cy="15.302165"
     inkscape:window-width="1296"
     inkscape:window-height="809"
     inkscape:window-x="0"
     inkscape:window-y="23"
     inkscape:window-maximized="0"
     inkscape:current-layer="svg490" />
  <path
     style="color:#000000;fill:#000000;-inkscape-stroke:none"
     d="M 24,12 A 12,12 0 0 1 12,24 12,12 0 0 1 0,12 12,12 0 0 1 12,0 12,12 0 0 1 24,12 Z"
     id="circle486" />
  <path
     style="color:#000000;fill:#ffffff;-inkscape-stroke:none"
     d="M 17.9255,9.25346 C 18.4689,8.85915 18.958,8.38599 19.3384,7.83396 18.8493,8.04426 18.2787,8.20198 17.7081,8.25455 18.3059,7.91282 18.7406,7.38708 18.958,6.72991 18.4146,7.04535 17.7897,7.28193 17.1647,7.41337 16.6213,6.86134 15.8877,6.5459 15.0726,6.5459 c -1.5759,0 -2.853,1.23549 -2.853,2.76013 0,0.2103 0.0272,0.42059 0.0816,0.63089 C 9.93729,9.80548 7.81796,8.70143 6.40508,7.04535 6.16054,7.43966 6.02469,7.91282 6.02469,8.43856 c 0,0.94633 0.48907,1.78754 1.27703,2.28694 -0.46191,-0.0263 -0.92381,-0.1314 -1.3042,-0.3417 v 0.0263 c 0,1.3406 0.97815,2.4447 2.28235,2.7075 -0.21737,0.0526 -0.48908,0.1052 -0.73361,0.1052 -0.1902,0 -0.35322,-0.0263 -0.54342,-0.0526 0.35322,1.1041 1.41288,1.8927 2.66274,1.919 -0.97815,0.736 -2.20084,1.1829 -3.53221,1.1829 -0.24454,0 -0.4619,-0.0263 -0.67927,-0.0526 1.24986,0.7886 2.74426,1.2355 4.37451,1.2355 5.24399,0 8.09689,-4.1796 8.09689,-7.83353 0,-0.13143 0,-0.23658 0,-0.36801 z"
     id="path488" />
</svg>

<svg width="24" height="24" viewBox="0 0 24 24" fill="none" xmlns="http://www.w3.org/2000/svg">
<circle cx="12" cy="12" r="12" fill="black"/>
<path d="M17.9255 9.25346C18.4689 8.85915 18.958 8.38599 19.3384 7.83396C18.8493 8.04426 18.2787 8.20198 17.7081 8.25455C18.3059 7.91282 18.7406 7.38708 18.958 6.72991C18.4146 7.04535 17.7897 7.28193 17.1647 7.41337C16.6213 6.86134 15.8877 6.5459 15.0726 6.5459C13.4967 6.5459 12.2196 7.78139 12.2196 9.30603C12.2196 9.51633 12.2468 9.72662 12.3012 9.93692C9.93729 9.80548 7.81796 8.70143 6.40508 7.04535C6.16054 7.43966 6.02469 7.91282 6.02469 8.43856C6.02469 9.38489 6.51376 10.2261 7.30172 10.7255C6.83981 10.6992 6.37791 10.5941 5.99752 10.3838V10.4101C5.99752 11.7507 6.97567 12.8548 8.27987 13.1176C8.0625 13.1702 7.79079 13.2228 7.54626 13.2228C7.35606 13.2228 7.19304 13.1965 7.00284 13.1702C7.35606 14.2743 8.41572 15.0629 9.66558 15.0892C8.68743 15.8252 7.46474 16.2721 6.13337 16.2721C5.88883 16.2721 5.67147 16.2458 5.4541 16.2195C6.70396 17.0081 8.19836 17.455 9.82861 17.455C15.0726 17.455 17.9255 13.2754 17.9255 9.62147C17.9255 9.49004 17.9255 9.38489 17.9255 9.25346Z" fill="white"/>
</svg>
